static/images/illustrations/store-pick-up.svg

<?xml version="1.0" encoding="UTF-8"?>
<svg width="74px" height="72px" viewBox="0 0 74 72" version="1.1" xmlns="http://www.w3.org/2000/svg" xmlns:xlink="http://www.w3.org/1999/xlink">
    <title>Group 23</title>
    <g id="Desktop" stroke="none" stroke-width="1" fill="none" fill-rule="evenodd">
        <g id="Screens/02-Order-Online/05-No-delivery" transform="translate(-683.000000, -209.000000)">
            <g id="Group-23" transform="translate(683.000000, 209.000000)">
                <path d="M61.0087859,70.7676338 C56.8696416,73.5670121 42.885368,75.6882895 33.6827791,68.5425708 C25.7413799,62.3761533 24.5918025,52.2832764 24.9918788,44.4181959 C25.4171708,36.0574018 31.17077,29.2056932 38.4535206,25.6043079 C45.6031401,22.0687571 63.6868587,22.5398438 68.305613,31.2244818 C74.9881275,43.7896054 72.6336472,62.9028919 61.0087859,70.7676338 Z" id="Path" fill="#FFD98C" transform="translate(48.461538, 48.461538) scale(-1, 1) rotate(-90.000000) translate(-48.461538, -48.461538) "></path>
                <g id="Group" fill="#242424" fill-rule="nonzero">
                    <g id="sharing-sushi">
                        <path d="M50.4125874,7.06795531 L51.4296277,7.55941409 L60.4296277,18.9072402 C60.6056907,19.1290043 60.7106643,19.4091724 60.7106643,19.7138583 L60.7106643,19.7138583 L60.7106643,27.4865856 C60.7106643,30.7294001 58.3777032,33.4273223 55.2986123,33.9935207 L55.2980769,59.4519231 L10.125,59.4519231 L10.1247225,33.949172 C7.15519548,33.2977229 4.93269231,30.6517009 4.93269231,27.4865856 L4.93269231,27.4865856 L4.93269231,19.7138583 C4.93269231,19.4091724 5.03766593,19.1290043 5.21341949,18.9075479 L5.21372897,18.9072402 L14.213729,7.55941409 L15.2307692,7.06795531 L50.4125874,7.06795531 Z M48.7760265,31.4229902 C47.5662653,33.0515248 45.6349281,34.1028443 43.458042,34.1028443 C41.2785054,34.1028443 39.345116,33.0489633 38.1396628,31.4229902 C36.9346043,33.0489633 35.0012148,34.1028443 32.8216783,34.1028443 C30.6421418,34.1028443 28.7087524,33.0489633 27.5032992,31.4229902 C26.2982406,33.0489633 24.3648512,34.1028443 22.1853147,34.1028443 C20.0057782,34.1028443 18.0723887,33.0489633 16.8669355,31.4229902 C15.8831009,32.7505658 14.4135997,33.6967616 12.721064,33.9993402 L12.7211538,56.8557692 L16.4686923,56.8549553 L16.4690559,38.052145 L30.5197552,38.052145 L30.5196923,56.8549553 L52.7019231,56.8557692 L52.7023272,33.9561408 C51.1026108,33.6135762 49.7173678,32.6927165 48.7760265,31.4229902 Z M27.9231923,40.6474615 L19.0651154,40.6474615 L19.0651154,56.7436154 L27.9231923,56.7436154 L27.9231923,40.6474615 Z M48.8784965,38.052145 L48.8784965,49.6482989 L34.0096154,49.6482989 L34.0096154,38.052145 L48.8784965,38.052145 Z M46.2821538,40.6474615 L36.6057692,40.6474615 L36.6057692,47.0516538 L46.2821538,47.0516538 L46.2821538,40.6474615 Z M58.1143846,21.0111923 L50.0736923,21.0109553 L50.0743007,27.4865856 C50.0743007,29.5680631 51.6562109,31.2800656 53.6833732,31.4859351 L53.8875315,31.5014595 L54.0944056,31.5066905 C56.3146482,31.5066905 58.1145105,29.7068282 58.1145105,27.4865856 L58.1145105,27.4865856 L58.1143846,21.0111923 Z M47.4774231,21.0111923 L39.4376923,21.0109553 L39.4379371,27.4865856 C39.4379371,29.5680631 41.0198473,31.2800656 43.0470096,31.4859351 L43.2511679,31.5014595 L43.458042,31.5066905 C45.6782846,31.5066905 47.4781469,29.7068282 47.4781469,27.4865856 L47.4781469,27.4865856 L47.4774231,21.0111923 Z M36.8415,21.0111923 L28.8006923,21.0111923 L28.8015734,27.4865856 C28.8015734,29.6374456 30.490702,31.3937886 32.6148043,31.5014595 L32.6148043,31.5014595 L32.8216783,31.5066905 C35.0419209,31.5066905 36.8417832,29.7068282 36.8417832,27.4865856 L36.8417832,27.4865856 L36.8415,21.0111923 Z M26.2045385,21.0111923 L18.1647692,21.0111923 L18.1652098,27.4865856 C18.1652098,29.6374456 19.8543383,31.3937886 21.9784406,31.5014595 L21.9784406,31.5014595 L22.1853147,31.5066905 C24.4055573,31.5066905 26.2054196,29.7068282 26.2054196,27.4865856 L26.2054196,27.4865856 L26.2045385,21.0111923 Z M15.5686154,21.0111923 L7.52884615,21.0111923 L7.52884615,27.4865856 C7.52884615,29.6374456 9.21797471,31.3937886 11.342077,31.5014595 L11.342077,31.5014595 L11.548951,31.5066905 C13.7691937,31.5066905 15.5690559,29.7068282 15.5690559,27.4865856 L15.5690559,27.4865856 L15.5686154,21.0111923 Z M49.7848846,9.66485208 L15.8583462,9.66485208 L8.91769231,18.4149553 L56.7236923,18.4149553 L49.7848846,9.66485208 Z" id="Combined-Shape"></path>
                    </g>
                </g>
            </g>
        </g>
    </g>
</svg>

<svg width="74" height="72" xmlns="http://www.w3.org/2000/svg"><g fill="none" fill-rule="evenodd"><path d="M26.155 35.914c-2.799 4.14-4.92 18.124 2.226 27.326 6.166 7.942 16.259 9.091 24.124 8.691 8.36-.425 15.212-6.179 18.814-13.461 3.535-7.15 3.064-25.234-5.62-29.853-12.566-6.682-31.679-4.328-39.544 7.297z" fill="#FFD98C"/><path d="M50.413 7.068l1.017.491 9 11.348c.176.222.28.502.28.807v7.773a6.618 6.618 0 01-5.411 6.507v25.458H10.124V33.949a6.619 6.619 0 01-5.192-6.462v-7.773c0-.305.105-.585.28-.806l9-11.349 1.018-.491h35.182zm-1.637 24.355a6.609 6.609 0 01-5.318 2.68 6.607 6.607 0 01-5.318-2.68 6.605 6.605 0 01-5.318 2.68 6.607 6.607 0 01-5.319-2.68 6.605 6.605 0 01-5.318 2.68 6.607 6.607 0 01-5.318-2.68 6.614 6.614 0 01-4.146 2.576v22.857l3.748-.001V38.052h14.05v18.803h22.183V33.957a6.619 6.619 0 01-3.926-2.533zm-20.853 9.224h-8.858v16.097h8.858V40.647zm20.955-2.595v11.596H34.01V38.052h14.868zm-2.596 2.595h-9.676v6.405h9.676v-6.405zm11.832-19.636h-8.04v6.476a4.02 4.02 0 003.61 3.999l.204.015.206.006c2.22 0 4.02-1.8 4.02-4.02V21.01zm-10.637 0h-8.04v6.476a4.02 4.02 0 003.61 3.999l.204.015.207.006c2.22 0 4.02-1.8 4.02-4.02V21.01zm-10.635 0H28.8v6.476a4.02 4.02 0 003.814 4.014l.207.006c2.22 0 4.02-1.8 4.02-4.02V21.01zm-10.637 0h-8.04v6.476a4.02 4.02 0 003.813 4.014l.207.006c2.22 0 4.02-1.8 4.02-4.02V21.01zm-10.636 0h-8.04v6.476a4.02 4.02 0 003.813 4.014l.207.006c2.22 0 4.02-1.8 4.02-4.02V21.01zM49.785 9.665H15.858l-6.94 8.75h47.806l-6.94-8.75z" fill="#242424" fill-rule="nonzero"/></g></svg>
